!!!OTL: Der heimkehrende Braeutigam Es wollt' sich ein Juengling erwerben,
!!!ARE: Europa, Mitteleuropa, Deutschland (BRD), Baden
!!!YOR: 5, S. 144
!!    1951 gedruckt in Lahr
!!!SCT: Q0102B
!!!YEM: Copyright 1995, estate of Helmut Schaffrath.
**kern
*ICvox
*Ivox
*M6/8
*k[f#]
*G:
{8d
=1
8B
8d
8g
8B
8d
8g
=2
4.b
4g}
{8b
=3
8.a
16f#
16f#
16f#
8g
8e
8a
=4
4.d
4r}
{8d
=5
8.cc
16b
8a
8.a
16g
8f#
=6
4g
8b
4d}
{8g
=7
8.e
16e
16e
16e
8g
8f#
8e
=8
4.d
4r}
{16b
16dd
=9
8.b
16a
16g
16g
8.a
16g
8f#
=10
4.g
4r}
==
!!!AGN: Ballade, Ehe - Geloebnis, Betrug
!!!ONB: ESAC (Essen Associative Code) Database: BALLADE
!!!AMT: compound duple
!!!AIN: vox
!!!EED: Helmut Schaffrath
!!!EEV: 1.0
*-
